X:19
T:An Italian Rant
B:Barlow.148
Z:Tom Novelli
M:C|
L:1/8
K:Gm
GABcd2d2|e2dcd2d2|c2cdB2Bc|AGABG2G2:||:g2ggf2ff|=edefd2d2|d=efd_e2d2|\
c3dB2B2|BcdBc2A2|ABcAB2G2|GABcd2d2|e2dcd2d2|c2cdB2Bc|AGABG2G2:|
